X:1
T:Title
T:Morêna travessa
T:Minho
T:https://archive.org/details/cantaresdopovopo00fernuoft/page/80/mode/2up
C:Composer
L:1/8
M:3/4
K:F
V:1 treble nm="Piano" snm="Pno."
V:1
 z2 z2 z [Ac] | [Ac]2 [Bd]2 [Ac]2 | [GB]2 [EG]3 [Bd] | [Bd]2 [ce]2 [Bd]2 | [Ac]2 [FA]3 [Ac] | %5
w: Mo-|re- na tra-|ves- sa D'on-|de'é que vi-|es- te? Sem|
 [Ac]2 [Bd]2 [Ac]2 | [ce]2 [ce]3 [Bd] | [Bd]2 [Ac]2 [GB]2 | [FA]2 [FA]2 z [df] | %9
w: dó no meu|pei- to que|gol- pe me|d'es- te Quand-|
 [df]2 [eg]2 [df]2 | [ce]2 [Bd]3 [Bd] | [Bd]2 [ce]2 [Bd]2 | [Ac]2 [FA]3 [Ac] | [Ac]2 [Bd]2 [Ac]2 | %14
w: do'eu te jul-|ga- va Di-|vi- na ce-|les- te as-|sim tal es-|
 [ce]2 [Bd]3 [Bd] | [Bd]2 [Ac]2 [GB]2 | [FA]4 z2 |] %17
w: cra- vo cru-|el me fi-|zeste.|

